FORWARD 50
RIGHT 90
FORWARD 50
RIGHT 90
FORWARD 50
RIGHT 90
FORWARD 50
PENUP
FORWARD 15
PENDOWN
SETFILLCOLOR 125 125 125
SETPENSIZE 2
FORWARD 50
RIGHT 90
FORWARD 50
RIGHT 90
FORWARD 50
RIGHT 90
FORWARD 50


